X:1
T:Mon Cher Kaki
C:Laurence Beaudry
Z:robin.beech@mcgill.ca
R:jig
M:6/8
L:1/8
K:D
FED B,DF | GBG E3 | E/F/GE (CA,)A, | CDE FED |
({DE}F)ED B,DF | GBG E3 | cAA EAA |1 cec d3 :|2 cec d2e ||
fdB FBa | gec Ace | afb gea | fde gfe |
fdB FBa | gec Ace | fdB cAF | B3- Bde |
fdB FBa | gec Ace | fdB FBd | cAF E2z |
{fg}fdB FBa | gec Ace | fdB cAF | B6 |]
